X: 18
T: Rights Of Man, The
Z: UPipes & harp
S: https://thesession.org/tunes/83#setting49980
R: hornpipe
M: 4/4
L: 1/8
K: Emin
GA|:B2A2 G2F2|EFGA B2ef|gfed edBd|cBAG A2GA|
BcAB GAFG|EFGA B2ef|gfed Bgfg|1 e2 E2 E2 GA:|2 e2 A2 A2 ga||
babg efga |babg egfe |defg agfe|defg a2 ga|
babg efga |babg e2 ef|gfed Bgfg|e2 A2 A2 ga|
babg efga |babg egfe |defg agfe|defg a2 gf|
edef gfga | bagf e2 ef|gfed Bgfg|e2 BGB E3||

